icon-themes/breeze_svg/cmd/lc_colorscaleformatdialog.svg

<svg viewBox="0 0 24 24" xmlns="http://www.w3.org/2000/svg"><path d="m4 5v3h16v-3zm0 10v3h9v-3z" fill="#27ae60"/><path d="m4 10v3h13v-3z" fill="#da4453"/><path d="m18.4375 13-1.154297 2h-3.283203v1h2.707031l-.578125 1h-2.128906v1h1.552734l-.865234 1.5.875.5 1.154297-2h3.283203v-1h-2.707031l.576172-1h2.130859v-1h-1.552734l.865234-1.5z" fill="#4d4d4d"/></svg>

<svg xmlns="http://www.w3.org/2000/svg" viewBox="0 0 24 24">
 <path 
     style="fill:#27ae60" 
     d="M 4 5 L 4 8 L 20 8 L 20 5 L 4 5 z M 4 15 L 4 18 L 13 18 L 13 15 L 4 15 z "
     />
 <path 
     style="fill:#da4453" 
     d="M 4 10 L 4 13 L 17 13 L 17 10 L 4 10 z "
     />
 <path 
     style="fill:#4d4d4d" 
     d="M 18.4375 13 L 17.283203 15 L 14 15 L 14 16 L 16.707031 16 L 16.128906 17 L 14 17 L 14 18 L 15.552734 18 L 14.6875 19.5 L 15.5625 20 L 16.716797 18 L 20 18 L 20 17 L 17.292969 17 L 17.869141 16 L 20 16 L 20 15 L 18.447266 15 L 19.3125 13.5 L 18.4375 13 z "
     />
 </svg>
